X:154
T:Little Driver THO1.154
M:6/8
L:1/8
Z:vmp. Peter Dunk 2012.from a transcription by Fynn Titford-Mock 2006
B:Thompson's Compleat Collection of 200 Favourite Country Dances Vol.I,1758
Q:3/8=100
K:G
TG3 ABc|def gdB|TG3 ABc|BGE AFD|TG3 ABc|def gdB|ede AB^c|Td3D3:|
|:Td3 ede|ABc BAG|Te3 fef|gfd dcB|D3 EFG|ABc def|gdB cAF|G3G,3:|

